X: 26239
T: Meelick Team, The
R: jig
M: 6/8
K: Eminor
e/f/ge dBA|BAF EDB,|EFG Eed|BAF GAB|
e/f/ge dBA|BAF EDB,|EFG Eed|BAF G3|
e/f/ge dBA|BAF EDB,|EFG Eed|BAF GAB|
e/f/ge dBA|BAF EDB,|EE/E/E Eed|BAF E3||
e2f ged|beg fed|Beg beg|fed e2f|
g3 edB|AGF EDB,|EFG Eed|BAF E3|
e2f ged|beg fed|Beg beg|fed eaf|
g3/2f/g edB|AGF EDB,|EFG Eed|BAF E3||

